X:47
T:Marjorie's Milestone
R:Reel
C:Pete Mac 2000
O:England
Z:Pete Mac Tunebook 2023 (see https://pghardy.net/tunebooks/).
Z:Creative Commons CC0 (Public Domain) licenced.
M:4/4
L:1/8
Q:1/4=170
K:G
"G"dcBA G2 D2|"C"EDEF "G"G4|dcBA G2 B2|"D7"AGAB A4|
"G"dcBA G2 D2|"C"EDEF "G"G4|BGBd "C"efge|"D7"dcBA "G"G4:|
|:"D"FDFA "G"GDGB|"D7"ADAc "G"B2 G2|"D"FDFA "G"GDGB|"D7"AGFE D4|
"D"FDFA "G"GDGB|"D7"ADAc "G"B2 d2|"C"efge "G"dBGB|"D7"ddef "G"g4:|

